X:1
T:Title
%%score { ( 1 3 ) | 2 }
L:1/8
M:2/2
K:Bb
V:1 treble nm="Grand Piano"
V:3 treble 
V:2 bass 
V:1
 z4 z2[Q:1/4=100] F2 | [DB]3 D E2 F2 | G2 F4 [DB]2 | A2 c2 G2 A2 |[M:3/4] [B,DB]6 |[M:1/4] F2 | %6
[M:4/4] [DB]3 D E2 F2 | G2 F4 [DFB]2 | [CFA]2 [CFA]2 [B,=EG]2 [B,EG]2 |[M:3/4] [A,F]6 |[M:1/4] F2 | %11
[M:4/4] c6 z2 | d6 z2 | G2 A2 B2 c2 |[M:3/4] d6 |[M:1/4] d2 |[M:4/4] e3 e e2 e2 | d2 [DB]4 [Fd]2 | %18
 c2 A2 G2 A2 |[M:3/4] [DB]6 |] %20
V:2
 z4 z2 F,2 | [B,,F,]3 D, E,2 F,2 | G,2 F,4 [B,,F,]2 | [F,E]2 [F,A,E]2 [F,CE]2 [F,CE]2 | %4
[M:3/4] B,,6 |[M:1/4] F,2 |[M:4/4] [B,,F,]3 D, E,2 F,2 | G,2 F,4 B,,2 | C,2 C,2 C,2 C,2 | %9
[M:3/4] F,6 |[M:1/4] z2 |[M:4/4] z2 [F,A,]2 [F,A,]2 z2 | z2 [B,,F,]2 [B,,F,]2 [D,F,D]2 | %13
 [E,G,E]2 [F,A,F]2[K:treble] [G,B,G]2 [A,CA]2 |[M:3/4] [B,DB]6 |[M:1/4] [B,F]2 | %16
[M:4/4] [A,CF]3 [A,CF] [A,CF]2 [A,CF]2 | [B,F]2[K:bass] [B,,B,]4 [B,,B,]2 | %18
 [E,G,E]2 [E,CE]2 [F,CE]2 [F,CE]2 |[M:3/4] [B,,B,]6 |] %20
V:3
 x8 | x8 | x8 | x8 |[M:3/4] x6 |[M:1/4] x2 |[M:4/4] x8 | x8 | x8 |[M:3/4] x6 |[M:1/4] x2 | %11
[M:4/4] z2 F2 F2 F2 | z2 D2 D2 F2 | x8 |[M:3/4] x6 |[M:1/4] x2 |[M:4/4] x8 | x8 | x8 |[M:3/4] x6 |] %20

